src/activities/algorithm/resource/apple.svg

<?xml version="1.0" encoding="UTF-8" standalone="no"?>
<!-- Created with Inkscape (http://www.inkscape.org/) -->

<svg
   xmlns:dc="http://purl.org/dc/elements/1.1/"
   xmlns:cc="http://creativecommons.org/ns#"
   xmlns:rdf="http://www.w3.org/1999/02/22-rdf-syntax-ns#"
   xmlns:svg="http://www.w3.org/2000/svg"
   xmlns="http://www.w3.org/2000/svg"
   xmlns:sodipodi="http://sodipodi.sourceforge.net/DTD/sodipodi-0.dtd"
   xmlns:inkscape="http://www.inkscape.org/namespaces/inkscape"
   id="svg2"
   version="1.1"
   inkscape:version="0.91 r13725"
   width="100"
   height="100"
   sodipodi:docname="apple.svg">
  <sodipodi:namedview
     pagecolor="#ffffff"
     bordercolor="#666666"
     borderopacity="1"
     objecttolerance="10"
     gridtolerance="10"
     guidetolerance="10"
     inkscape:pageopacity="0"
     inkscape:pageshadow="2"
     inkscape:window-width="1880"
     inkscape:window-height="1060"
     id="namedview4"
     showgrid="false"
     inkscape:zoom="5.9"
     inkscape:cx="14.552431"
     inkscape:cy="68.040638"
     inkscape:window-x="0"
     inkscape:window-y="0"
     inkscape:window-maximized="1"
     inkscape:current-layer="svg2" />
  <metadata
     id="metadata8">
    <rdf:RDF>
      <cc:Work
         rdf:about="">
        <dc:format>image/svg+xml</dc:format>
        <dc:type
           rdf:resource="http://purl.org/dc/dcmitype/StillImage" />
        <dc:title></dc:title>
        <dc:date>2015</dc:date>
        <dc:creator>
          <cc:Agent>
            <dc:title>Timothée Giet</dc:title>
          </cc:Agent>
        </dc:creator>
        <cc:license
           rdf:resource="http://creativecommons.org/licenses/by-sa/4.0/" />
      </cc:Work>
      <cc:License
         rdf:about="http://creativecommons.org/licenses/by-sa/4.0/">
        <cc:permits
           rdf:resource="http://creativecommons.org/ns#Reproduction" />
        <cc:permits
           rdf:resource="http://creativecommons.org/ns#Distribution" />
        <cc:requires
           rdf:resource="http://creativecommons.org/ns#Notice" />
        <cc:requires
           rdf:resource="http://creativecommons.org/ns#Attribution" />
        <cc:permits
           rdf:resource="http://creativecommons.org/ns#DerivativeWorks" />
        <cc:requires
           rdf:resource="http://creativecommons.org/ns#ShareAlike" />
      </cc:License>
    </rdf:RDF>
  </metadata>
  <defs
     id="defs6" />
  <path
     sodipodi:nodetypes="ccszzcccc"
     style="fill:#758822;fill-opacity:1;fill-rule:evenodd;stroke:none;stroke-width:2.21904564;stroke-linejoin:round"
     inkscape:connector-curvature="0"
     id="path866"
     d="m 38.117043,14.616587 c 0,0 21.782995,-4.042102 25.831203,-3.514853 16.195163,1.405857 29.31288,13.002552 32.578993,28.294716 C 101.7656,63.922806 81.527471,84.924788 77.637153,90.1891 73.746835,95.453412 65.603803,96.403065 55.660832,98.448773 45.717861,100.49448 34.828165,98.190856 30.598276,95.637059 -15.667295,58.025636 3.0317943,22.877105 19.417954,18.306486 29.636303,15.142991 38.117043,14.615742 38.117043,14.615742 Z" />
  <path
     sodipodi:nodetypes="ccszzcccc"
     style="fill:#b6d823;fill-opacity:1;fill-rule:evenodd;stroke:none;stroke-width:2.21904564;stroke-linejoin:round"
     inkscape:connector-curvature="0"
     id="path866-3"
     d="m 39.297237,17.374374 c 0,0 19.705993,-3.635567 23.368204,-3.161347 14.650958,1.264464 26.51715,11.691307 29.472595,25.448977 C 96.876368,61.719057 78.568491,80.611332 75.049114,85.346186 71.529738,90.081041 64.163142,90.935183 55.16823,92.775143 46.173319,94.615103 36.321953,92.543166 32.495383,90.246218 -9.358777,56.41756 7.5573586,24.804091 22.381102,20.693162 31.625134,17.847835 39.297237,17.373614 39.297237,17.373614 Z" />
  <path
     style="fill:#51391b;fill-rule:evenodd;stroke:none;stroke-width:2.21904564;stroke-linejoin:round;fill-opacity:1"
     inkscape:connector-curvature="0"
     id="path867"
     d="M 44.403645,25.279535 C 43.632669,21.061965 52.574597,1.7626178 55.27185,1.4116821 c 1.735279,-0.1756792 9.445043,3.4053443 4.917013,5.6477386 0,1.8686266 -1.73528,-0.3515699 -2.892909,0.3515698 -2.697253,2.6362455 -7.206649,10.8741425 -8.748602,17.3759655 l -4.143707,0.492579 z" />
  <path
     sodipodi:nodetypes="cccccc"
     style="fill:#634217;fill-opacity:1;fill-rule:evenodd;stroke:none;stroke-width:2.21904564;stroke-linejoin:round"
     inkscape:connector-curvature="0"
     id="path867-7"
     d="m 45.841828,25.159686 c -0.770976,-4.21757 6.852618,-21.839036 9.549871,-22.1899717 1.735279,-0.1756792 5.609887,1.8473124 4.197921,3.0110692 0,1.8686266 -1.73528,-0.7111157 -2.892909,-0.00798 C 53.999458,8.6090527 48.77097,18.045436 47.229017,24.547259 Z" />
  <path
     sodipodi:nodetypes="ccscc"
     inkscape:connector-curvature="0"
     id="path871"
     d="m 46.123047,24.546875 c -7.559856,1.149506 -10.336552,-1.069851 -16.441406,-0.789063 8.806228,2.82378 12.702947,3.590498 16.767578,2.984376 4.06463,-0.606123 7.991951,-2.451724 17.375,-4.720704 -4.771365,-1.241536 -13.322952,1.817833 -17.701172,2.525391 z"
     style="color:#000000;font-style:normal;font-variant:normal;font-weight:normal;font-stretch:normal;font-size:medium;line-height:normal;font-family:sans-serif;text-indent:0;text-align:start;text-decoration:none;text-decoration-line:none;text-decoration-style:solid;text-decoration-color:#000000;letter-spacing:normal;word-spacing:normal;text-transform:none;direction:ltr;block-progression:tb;writing-mode:lr-tb;baseline-shift:baseline;text-anchor:start;white-space:normal;clip-rule:nonzero;display:inline;overflow:visible;visibility:visible;opacity:1;isolation:auto;mix-blend-mode:normal;color-interpolation:sRGB;color-interpolation-filters:linearRGB;solid-color:#000000;solid-opacity:1;fill:#758822;fill-opacity:1;fill-rule:nonzero;stroke:none;stroke-width:2.21904564;stroke-linecap:butt;stroke-linejoin:round;stroke-miterlimit:4;stroke-dasharray:none;stroke-dashoffset:0;stroke-opacity:1;color-rendering:auto;image-rendering:auto;shape-rendering:auto;text-rendering:auto;enable-background:accumulate" />
</svg>

<!--Created with Inkscape (http://www.inkscape.org/)--><svg xmlns:dc="http://purl.org/dc/elements/1.1/" xmlns:cc="http://creativecommons.org/ns#" xmlns:rdf="http://www.w3.org/1999/02/22-rdf-syntax-ns#" xmlns="http://www.w3.org/2000/svg" xmlns:sodipodi="http://sodipodi.sourceforge.net/DTD/sodipodi-0.dtd" xmlns:inkscape="http://www.inkscape.org/namespaces/inkscape" inkscape:version="0.91 r13725" width="100" height="100" sodipodi:docname="apple.svg"><sodipodi:namedview pagecolor="#ffffff" bordercolor="#666666" borderopacity="1" objecttolerance="10" gridtolerance="10" guidetolerance="10" inkscape:pageopacity="0" inkscape:pageshadow="2" inkscape:window-width="1880" inkscape:window-height="1060" showgrid="false" inkscape:zoom="5.9" inkscape:cx="14.552431" inkscape:cy="68.040638" inkscape:window-x="0" inkscape:window-y="0" inkscape:window-maximized="1" inkscape:current-layer="svg2"/><metadata><rdf:RDF><cc:Work><dc:format>image/svg+xml</dc:format><dc:type rdf:resource="http://purl.org/dc/dcmitype/StillImage"/><dc:title/><dc:date>2015</dc:date><dc:creator><cc:Agent><dc:title>Timothée Giet</dc:title></cc:Agent></dc:creator><cc:license rdf:resource="http://creativecommons.org/licenses/by-sa/4.0/"/></cc:Work><cc:License rdf:about="http://creativecommons.org/licenses/by-sa/4.0/"><cc:permits rdf:resource="http://creativecommons.org/ns#Reproduction"/><cc:permits rdf:resource="http://creativecommons.org/ns#Distribution"/><cc:requires rdf:resource="http://creativecommons.org/ns#Notice"/><cc:requires rdf:resource="http://creativecommons.org/ns#Attribution"/><cc:permits rdf:resource="http://creativecommons.org/ns#DerivativeWorks"/><cc:requires rdf:resource="http://creativecommons.org/ns#ShareAlike"/></cc:License></rdf:RDF></metadata><path sodipodi:nodetypes="ccszzcccc" style="fill:#758822;fill-opacity:1;fill-rule:evenodd;stroke:none;stroke-width:2.21904564;stroke-linejoin:round" inkscape:connector-curvature="0" d="M38.117 14.617s21.783-4.043 25.831-3.515c16.195 1.406 29.313 13.002 32.58 28.294 5.238 24.527-15 45.529-18.89 50.793-3.891 5.264-12.034 6.214-21.977 8.26-9.943 2.045-20.833-.258-25.063-2.812-46.265-37.611-27.566-72.76-11.18-77.33 10.218-3.164 18.699-3.691 18.699-3.691z"/><path sodipodi:nodetypes="ccszzcccc" style="fill:#b6d823;fill-opacity:1;fill-rule:evenodd;stroke:none;stroke-width:2.21904564;stroke-linejoin:round" inkscape:connector-curvature="0" d="M39.297 17.374s19.706-3.635 23.368-3.161c14.651 1.264 26.518 11.691 29.473 25.449 4.738 22.057-13.57 40.95-17.089 45.684-3.52 4.735-10.886 5.59-19.88 7.43-8.996 1.84-18.847-.233-22.674-2.53C-9.359 56.418 7.557 24.804 22.381 20.693c9.244-2.845 16.916-3.32 16.916-3.32z"/><path style="fill:#51391b;fill-rule:evenodd;stroke:none;stroke-width:2.21904564;stroke-linejoin:round;fill-opacity:1" inkscape:connector-curvature="0" d="M44.404 25.28c-.771-4.218 8.17-23.517 10.868-23.868 1.735-.176 9.445 3.405 4.917 5.647 0 1.869-1.735-.351-2.893.352-2.697 2.636-7.207 10.874-8.749 17.376l-4.143.493z"/><path sodipodi:nodetypes="cccccc" style="fill:#634217;fill-opacity:1;fill-rule:evenodd;stroke:none;stroke-width:2.21904564;stroke-linejoin:round" inkscape:connector-curvature="0" d="M45.842 25.16c-.771-4.218 6.852-21.84 9.55-22.19 1.735-.176 5.61 1.847 4.198 3.01 0 1.87-1.736-.71-2.893-.007-2.698 2.636-7.926 12.072-9.468 18.574z"/><path sodipodi:nodetypes="ccscc" inkscape:connector-curvature="0" d="M46.123 24.547c-7.56 1.15-10.337-1.07-16.441-.79 8.806 2.825 12.703 3.591 16.767 2.985 4.065-.606 7.992-2.452 17.375-4.72-4.771-1.242-13.323 1.817-17.701 2.525z" style="color:#000;font-style:normal;font-variant:normal;font-weight:400;font-stretch:normal;font-size:medium;line-height:normal;font-family:sans-serif;text-indent:0;text-align:start;text-decoration:none;text-decoration-line:none;text-decoration-style:solid;text-decoration-color:#000;letter-spacing:normal;word-spacing:normal;text-transform:none;direction:ltr;block-progression:tb;writing-mode:lr-tb;baseline-shift:baseline;text-anchor:start;white-space:normal;clip-rule:nonzero;display:inline;overflow:visible;visibility:visible;opacity:1;isolation:auto;mix-blend-mode:normal;color-interpolation:sRGB;color-interpolation-filters:linearRGB;solid-color:#000;solid-opacity:1;fill:#758822;fill-opacity:1;fill-rule:nonzero;stroke:none;stroke-width:2.21904564;stroke-linecap:butt;stroke-linejoin:round;stroke-miterlimit:4;stroke-dasharray:none;stroke-dashoffset:0;stroke-opacity:1;color-rendering:auto;image-rendering:auto;shape-rendering:auto;text-rendering:auto;enable-background:accumulate"/></svg>
